X:763
L:1/8
M:4/4
K:G
 B>A | G g2 g2 dBd | c2 e2 e2 g2 | dBdB edcB | ABcA GFED | G g2 g2 dBd | c2 e2 e2 g2 | dBdB ecAF | 
 G2 G2 G4 :: dBdB d g3 | ecec e g3 | eBdg edcB | ABcA GFED | G2 g2 g2 dBd | c2 e2 e2 g2 | 
 dBdB ecAF | G2 G2 G4 :|

